X:1
T:Find Your Time
T:Find your Time
T:Morante Jose
C:Morante Jose
Z:Public Domain
L:1/8
M:4/4
K:B
V:1 treble nm="Flute" snm="Fl."
%%MIDI program 73
V:1
 E4 F2 G2 | G2 dd c4 | d2 d2 c2 c2 | B2 B2 A4 | F2 G2 A2 A2 | B4 _BAGG | F4 BAGF | F8 | z8 | %9
 E4 FGAB | _B _B2 =B AAGF | G4 ABcG | F8 |] %13

